static/assets/images/icons/info.svg

<svg xmlns="http://www.w3.org/2000/svg" fill="none" viewBox="0 0 256 256"><path fill="#000" d="M118 178h20v-60h-20zm10-80q4.25 0 7.125-2.875T138 88t-2.875-7.125T128 78t-7.125 2.875Q118 83.751 118 88t2.875 7.125Q123.75 98 128 98m0 130q-20.75 0-39-7.875T57.25 198.75 35.875 167 28 128t7.875-39T57.25 57.25 89 35.875 128 28t39 7.875 31.75 21.375T220.125 89 228 128t-7.875 39-21.375 31.75T167 220.125 128 228m0-20q33.5 0 56.75-23.25T208 128t-23.25-56.75T128 48 71.25 71.25 48 128t23.25 56.75T128 208"/></svg>

<svg width="256" height="256" viewBox="0 0 256 256" fill="none" xmlns="http://www.w3.org/2000/svg">
<path d="M118 178H138V118H118V178ZM128 98C130.833 98 133.208 97.0417 135.125 95.125C137.042 93.2083 138 90.8333 138 88C138 85.1667 137.042 82.7917 135.125 80.875C133.208 78.9583 130.833 78 128 78C125.167 78 122.792 78.9583 120.875 80.875C118.958 82.7917 118 85.1667 118 88C118 90.8333 118.958 93.2083 120.875 95.125C122.792 97.0417 125.167 98 128 98ZM128 228C114.167 228 101.167 225.375 89 220.125C76.8333 214.875 66.25 207.75 57.25 198.75C48.25 189.75 41.125 179.167 35.875 167C30.625 154.833 28 141.833 28 128C28 114.167 30.625 101.167 35.875 89C41.125 76.8333 48.25 66.25 57.25 57.25C66.25 48.25 76.8333 41.125 89 35.875C101.167 30.625 114.167 28 128 28C141.833 28 154.833 30.625 167 35.875C179.167 41.125 189.75 48.25 198.75 57.25C207.75 66.25 214.875 76.8333 220.125 89C225.375 101.167 228 114.167 228 128C228 141.833 225.375 154.833 220.125 167C214.875 179.167 207.75 189.75 198.75 198.75C189.75 207.75 179.167 214.875 167 220.125C154.833 225.375 141.833 228 128 228ZM128 208C150.333 208 169.25 200.25 184.75 184.75C200.25 169.25 208 150.333 208 128C208 105.667 200.25 86.75 184.75 71.25C169.25 55.75 150.333 48 128 48C105.667 48 86.75 55.75 71.25 71.25C55.75 86.75 48 105.667 48 128C48 150.333 55.75 169.25 71.25 184.75C86.75 200.25 105.667 208 128 208Z" fill="black"/>
</svg>
